icon/ir/maps-arrow-issue.svg

<svg stroke-width="1.5" viewBox="0 0 24 24" fill="none" xmlns="http://www.w3.org/2000/svg" height="1em" width="1em">
  <path d="M14 17.2778L12.1812 16.5705C12.0647 16.5251 11.9353 16.5251 11.8188 16.5705L4.30179 19.4937C3.86426 19.6639 3.45463 19.1918 3.68478 18.7826L11.5642 4.77473C11.7554 4.43491 12.2446 4.43491 12.4358 4.77473L18.5 15.5556" stroke="currentColor" stroke-linecap="round" stroke-linejoin="round"/>
  <path d="M17.1213 22.364L19.2427 20.2427M19.2427 20.2427L21.364 18.1213M19.2427 20.2427L17.1213 18.1213M19.2427 20.2427L21.364 22.364" stroke="currentColor" stroke-linecap="round" stroke-linejoin="round"/>
</svg>

<svg width="24" height="24" stroke-width="1.5" fill="none" xmlns="http://www.w3.org/2000/svg"><path d="m14 17.278-1.819-.707a.5.5 0 0 0-.362 0l-7.517 2.923a.5.5 0 0 1-.617-.711l7.88-14.008a.5.5 0 0 1 .87 0l6.065 10.78M17.121 22.364l2.122-2.121m0 0 2.121-2.122m-2.121 2.122L17.12 18.12m2.122 2.122 2.121 2.121" stroke="currentColor" stroke-linecap="round" stroke-linejoin="round"/></svg>
